X:169
T:Sap In The Bucket
R:jig
C:Bruce Osborne - Feb. 2003
Z:abc by bosborne@kos.net
M:6/8
L:1/8
K:Bb
F/E/|DFB dBF|EGB ede|fag fcd|eg=e f2 F/E/|\
DFB dBF|EGB ede|fag fcd|ecA B2:|
|:F/E/|DFB DFB|EGB EGB|FAc FAc|BAG F2 F/E/|\
DFB DFB|EGB EGB|FAc FAc|cBA B2:|
